src/pos-icons/database-check.svg

<svg height="24" viewBox="0 0 24 24" width="24" xmlns="http://www.w3.org/2000/svg"><path d="m17.75 22.16-2.75-3 1.16-1.16 1.59 1.59 3.59-3.59 1.16 1.41zm-5.75-19.16c4.42 0 8 1.79 8 4s-3.58 4-8 4-8-1.79-8-4 3.58-4 8-4m-8 6c0 2.21 3.58 4 8 4s8-1.79 8-4v3c0 .43-.13.84-.38 1.22-.52-.14-1.06-.22-1.62-.22-2.21 0-4.15 1.2-5.19 3h-.81c-4.42 0-8-1.79-8-4zm0 5c0 2.21 3.58 4 8.08 4l-.08 1c0 .7.12 1.37.34 2h-.34c-4.42 0-8-1.79-8-4z"/></svg>

<?xml version="1.0" encoding="UTF-8"?><!DOCTYPE svg PUBLIC "-//W3C//DTD SVG 1.1//EN" "http://www.w3.org/Graphics/SVG/1.1/DTD/svg11.dtd"><svg xmlns="http://www.w3.org/2000/svg" xmlns:xlink="http://www.w3.org/1999/xlink" version="1.1" id="mdi-database-check" width="24" height="24" viewBox="0 0 24 24"><path d="M17.75,22.16L15,19.16L16.16,18L17.75,19.59L21.34,16L22.5,17.41L17.75,22.16M12,3C16.42,3 20,4.79 20,7C20,9.21 16.42,11 12,11C7.58,11 4,9.21 4,7C4,4.79 7.58,3 12,3M4,9C4,11.21 7.58,13 12,13C16.42,13 20,11.21 20,9V12C20,12.43 19.87,12.84 19.62,13.22C19.1,13.08 18.56,13 18,13C15.79,13 13.85,14.2 12.81,16H12C7.58,16 4,14.21 4,12V9M4,14C4,16.21 7.58,18 12.08,18L12,19C12,19.7 12.12,20.37 12.34,21H12C7.58,21 4,19.21 4,17V14Z" /></svg>
